assets/img/questio.svg

<?xml version="1.0" encoding="UTF-8"?>
<svg width="22px" height="22px" viewBox="0 0 22 22" version="1.1" xmlns="http://www.w3.org/2000/svg" xmlns:xlink="http://www.w3.org/1999/xlink">
    <!-- Generator: Sketch 64 (93537) - https://sketch.com -->
    <title>question-2</title>
    <desc>Created with Sketch.</desc>
    <defs>
        <linearGradient x1="50%" y1="0%" x2="50%" y2="100%" id="linearGradient-1">
            <stop stop-color="#FFDA44" offset="0%"></stop>
            <stop stop-color="#FFAF46" offset="100%"></stop>
        </linearGradient>
    </defs>
    <g id="Welcome" stroke="none" stroke-width="1" fill="none" fill-rule="evenodd">
        <g id="package-upgrade-1.0" transform="translate(-375.000000, -1108.000000)" fill="url(#linearGradient-1)" fill-rule="nonzero">
            <g id="question-2" transform="translate(375.000000, 1108.000000)">
                <path d="M11,0 C4.93423047,0 0,4.93423047 0,11 C0,17.0657695 4.93423047,22 11,22 C17.0657695,22 22,17.0657695 22,11 C22,4.93423047 17.0657695,0 11,0 Z M10.5416523,18.3333477 C9.78342578,18.3333477 9.16665234,17.7165742 9.16665234,16.9583477 C9.16665234,16.2001211 9.78342578,15.5833477 10.5416523,15.5833477 C11.2998789,15.5833477 11.9166523,16.2001211 11.9166523,16.9583477 C11.9166523,17.7165742 11.2998789,18.3333477 10.5416523,18.3333477 Z M11.9166523,12.7420391 L11.9166523,14.2083477 C11.9166523,14.4616914 11.7116484,14.6666953 11.4583047,14.6666953 L9.625,14.6666953 C9.37165625,14.6666953 9.16665234,14.4616914 9.16665234,14.2083477 L9.16665234,11.9166953 C9.16665234,10.9060273 9.98933203,10.0833477 11,10.0833477 C12.010668,10.0833477 12.8333477,9.26066797 12.8333477,8.25 C12.8333477,7.23933203 12.010668,6.41665234 11,6.41665234 C9.98933203,6.41665234 9.16665234,7.23933203 9.16665234,8.25 L9.16665234,8.70834766 C9.16665234,8.96169141 8.96164844,9.16669531 8.70830469,9.16669531 L6.875,9.16669531 C6.62165625,9.16669531 6.41665234,8.96169141 6.41665234,8.70834766 L6.41665234,8.25 C6.41665234,5.72287891 8.47287891,3.66665234 11,3.66665234 C13.5271211,3.66665234 15.5833477,5.72292187 15.5833477,8.25 C15.5833477,10.4494844 14.0337656,12.3132539 11.9166523,12.7420391 Z" id="Shape"></path>
            </g>
        </g>
    </g>
</svg>

<svg width="22" height="22" xmlns="http://www.w3.org/2000/svg"><defs><linearGradient x1="50%" y1="0%" x2="50%" y2="100%" id="a"><stop stop-color="#FFDA44" offset="0%"/><stop stop-color="#FFAF46" offset="100%"/></linearGradient></defs><path d="M11 0C4.934 0 0 4.934 0 11s4.934 11 11 11 11-4.934 11-11S17.066 0 11 0zm-.458 18.333a1.376 1.376 0 01-1.375-1.375 1.376 1.376 0 012.75 0c0 .759-.617 1.375-1.375 1.375zm1.375-5.591v1.466a.458.458 0 01-.459.459H9.625a.458.458 0 01-.458-.459v-2.291c0-1.011.822-1.834 1.833-1.834 1.01 0 1.833-.822 1.833-1.833 0-1.01-.822-1.833-1.833-1.833-1.01 0-1.833.822-1.833 1.833v.458a.458.458 0 01-.459.459H6.875a.458.458 0 01-.458-.459V8.25A4.589 4.589 0 0111 3.667a4.589 4.589 0 014.583 4.583c0 2.2-1.55 4.063-3.666 4.492z" fill="url(#a)"/></svg>
